luts/sample.cube
TITLE "MagicHour"
# Created by Photon 3D ColorGrading
DOMAIN_MIN 0 0 0
DOMAIN_MAX 1 1 1
LUT_3D_SIZE 9
-0.000003 0.000001 0.000001
0.111242 -0.056751 -0.057439
0.224823 -0.116523 -0.117763
0.348458 -0.176110 -0.177666
0.493768 -0.225614 -0.227171
0.662857 -0.255248 -0.256564
0.850914 -0.261796 -0.262608
1.065098 -0.267074 -0.267016
1.322461 -0.298498 -0.297146
-0.054484 0.106998 -0.058205
0.081993 0.075295 -0.090660
0.221051 0.039859 -0.127446
0.366655 -0.000718 -0.170748
0.530171 -0.038107 -0.212631
0.715855 -0.061361 -0.240892
0.914655 -0.065830 -0.247393
1.118149 -0.061778 -0.239636
1.333852 -0.064525 -0.235544
-0.111647 0.216149 -0.119135
0.043105 0.202908 -0.135643
0.201428 0.185798 -0.156903
0.369421 0.164457 -0.184011
0.557930 0.144853 -0.211442
0.768076 0.133379 -0.230985
0.981527 0.133593 -0.229808
1.173673 0.143028 -0.202416
1.353008 0.152889 -0.168019
-0.167736 0.335154 -0.179099
-0.002701 0.333514 -0.190472
0.167826 0.328822 -0.205742
0.354351 0.323797 -0.221589
0.568595 0.322732 -0.232684
0.807594 0.325552 -0.236933
1.039464 0.331283 -0.216900
1.224996 0.338170 -0.161051
1.384572 0.341078 -0.101770
-0.212954 0.473601 -0.228438
-0.041741 0.481164 -0.240456
0.136666 0.486711 -0.254944
0.333555 0.492792 -0.266810
0.561748 0.502402 -0.268995
0.819241 0.513016 -0.261100
1.067672 0.517913 -0.222830
1.257803 0.511190 -0.140508
1.414855 0.493884 -0.056283
-0.237004 0.633529 -0.256997
-0.061717 0.650019 -0.271106
0.120900 0.664344 -0.286457
0.319094 0.676275 -0.299034
0.543360 0.686415 -0.301610
0.796830 0.693415 -0.291989
1.050369 0.688352 -0.251317
1.251614 0.660975 -0.160466
1.412734 0.616716 -0.053193
-0.239018 0.810067 -0.263869
-0.062115 0.832811 -0.280407
0.120736 0.852122 -0.297180
0.313571 0.864602 -0.311765
0.521546 0.867399 -0.318827
0.749483 0.861036 -0.315366
0.987337 0.840720 -0.288251
1.194644 0.796150 -0.214255
1.362215 0.730016 -0.104396
-0.242967 1.014398 -0.273177
-0.060971 1.036961 -0.290468
0.123713 1.053380 -0.306875
0.310795 1.057068 -0.320442
0.498860 1.042857 -0.328229
0.691089 1.013969 -0.327737
0.891958 0.974478 -0.312577
1.088957 0.922292 -0.269656
1.269168 0.855524 -0.196822
-0.277916 1.264182 -0.314407
-0.079852 1.279325 -0.329164
0.115824 1.282689 -0.340117
0.303732 1.263987 -0.344422
0.475772 1.219963 -0.342920
0.631701 1.159518 -0.336118
0.784499 1.096453 -0.322669
0.951474 1.040990 -0.306617
1.136131 0.991414 -0.290892
-0.059147 -0.061921 0.115871
0.073550 -0.097811 0.074211
0.205419 -0.141698 0.029144
0.341594 -0.194153 -0.019215
0.495687 -0.243281 -0.061128
0.671742 -0.275316 -0.086167
0.863511 -0.284626 -0.090896
1.077692 -0.294001 -0.093635
1.335469 -0.334122 -0.117937
-0.101324 0.072656 0.087719
0.038597 0.030992 0.037208
0.187118 -0.006041 -0.004835
0.346659 -0.041039 -0.040660
0.522247 -0.071710 -0.070003
0.714658 -0.092661 -0.089281
0.919299 -0.103318 -0.096934
1.130126 -0.109897 -0.096311
1.346762 -0.117724 -0.091808
-0.146032 0.203678 0.045597
0.004269 0.165836 -0.002808
0.169340 0.139721 -0.036823
0.352346 0.123191 -0.057938
0.552409 0.111045 -0.072302
0.764601 0.101105 -0.082587
0.977524 0.092820 -0.085078
1.176013 0.089051 -0.075053
1.357729 0.092287 -0.054103
-0.193817 0.336182 -0.008326
-0.029519 0.310849 -0.045893
0.149763 0.297578 -0.070134
0.350399 0.296227 -0.079528
0.573032 0.299868 -0.079012
0.806300 0.301560 -0.074457
1.024258 0.298215 -0.059174
1.210691 0.292111 -0.033001
1.374381 0.284928 -0.005916
-0.236293 0.483965 -0.056833
-0.056974 0.472336 -0.083021
0.132488 0.469898 -0.100244
0.339515 0.476115 -0.105641
0.570365 0.485579 -0.098631
0.815753 0.492481 -0.082368
1.042016 0.489520 -0.047871
1.229610 0.474652 -0.001788
1.392946 0.450797 0.037983
-0.261284 0.653180 -0.085009
-0.072729 0.652511 -0.106124
0.120934 0.657652 -0.121417
0.324822 0.664350 -0.128673
0.546382 0.667035 -0.125377
0.785617 0.665888 -0.111178
1.018737 0.655183 -0.072833
1.217917 0.628712 -0.011492
1.390088 0.589377 0.052927
-0.266295 0.837801 -0.092473
-0.081361 0.849917 -0.118870
0.109276 0.860994 -0.138706
0.306806 0.862862 -0.150669
0.511036 0.850096 -0.154807
0.727651 0.828983 -0.149521
0.952501 0.803175 -0.122845
1.159964 0.765560 -0.063378
1.343172 0.714142 0.017647
-0.274261 1.047155 -0.099692
-0.095297 1.069721 -0.133191
0.091831 1.081426 -0.159457
0.283639 1.073908 -0.178778
0.472349 1.042911 -0.191264
0.660438 0.995287 -0.192257
0.856636 0.944725 -0.175091
1.057192 0.896252 -0.133256
1.253555 0.845207 -0.068874
-0.313942 1.299642 -0.130156
-0.120699 1.313553 -0.155886
0.071346 1.314118 -0.183207
0.257258 1.294906 -0.212974
0.431967 1.247827 -0.237023
0.593505 1.172066 -0.240436
0.750613 1.087591 -0.221917
0.926913 1.024060 -0.198547
1.136128 0.987600 -0.181511
-0.121486 -0.127080 0.233980
0.031644 -0.144924 0.206410
0.180768 -0.175257 0.175258
0.331448 -0.219128 0.140618
0.497697 -0.263707 0.110594
0.682882 -0.293509 0.093563
0.878370 -0.304009 0.089989
1.089479 -0.315029 0.087538
1.335302 -0.353993 0.071468
-0.158560 0.032646 0.239376
-0.005723 -0.009262 0.180413
0.156553 -0.044064 0.136746
0.330301 -0.074267 0.107285
0.517134 -0.100156 0.087510
0.715811 -0.119475 0.074750
0.923306 -0.134912 0.066254
1.135002 -0.149979 0.061899
1.347771 -0.165174 0.062815
-0.196084 0.184987 0.219028
-0.036859 0.137669 0.153065
0.139393 0.106715 0.109378
0.334346 0.090480 0.088259
0.542205 0.080166 0.079037
0.755681 0.068124 0.071538
0.968236 0.051173 0.063681
1.167981 0.036049 0.061348
1.349067 0.029359 0.068281
-0.234124 0.333592 0.173959
-0.061431 0.298199 0.121913
0.128074 0.277949 0.088811
0.337983 0.273200 0.077134
0.562932 0.273909 0.078744
0.789198 0.268916 0.082795
0.999872 0.255291 0.086893
1.184245 0.238294 0.090788
1.348121 0.221803 0.093879
-0.266962 0.493175 0.127723
-0.078359 0.472959 0.092629
0.120404 0.462965 0.070163
0.333351 0.462820 0.063152
0.561402 0.464968 0.070133
0.792926 0.462472 0.085616
1.005618 0.451126 0.106839
1.189203 0.429395 0.124322
1.353754 0.400684 0.132775
-0.285764 0.670848 0.099575
-0.088766 0.662204 0.071391
0.111383 0.659634 0.051367
0.317735 0.657145 0.042319
0.533551 0.647162 0.045339
0.757761 0.633273 0.060084
0.976569 0.617307 0.089328
1.173880 0.592609 0.126666
1.352889 0.558774 0.159398
-0.288552 0.859808 0.090505
-0.101177 0.866971 0.055033
0.090864 0.872054 0.027369
0.289312 0.862717 0.010864
0.490064 0.832548 0.005087
0.695054 0.794400 0.010852
0.908325 0.762847 0.035373
1.118677 0.734384 0.082725
1.317040 0.700094 0.141310
-0.295019 1.066491 0.084834
-0.122863 1.088064 0.040476
0.060174 1.094861 0.003601
0.251495 1.076880 -0.025141
0.440132 1.032672 -0.046028
0.624922 0.972089 -0.052309
0.817586 0.915053 -0.036684
1.023965 0.873140 0.004414
1.236573 0.839054 0.063821
-0.330315 1.308052 0.065842
-0.151129 1.319393 0.030230
0.031180 1.312825 -0.008982
0.211688 1.287551 -0.054518
0.387761 1.242892 -0.099049
0.558401 1.174201 -0.124442
0.726860 1.090769 -0.118814
0.912067 1.022200 -0.089990
1.129983 0.984647 -0.056091
-0.183485 -0.191999 0.362314
-0.014084 -0.198312 0.343816
0.151064 -0.218904 0.324795
0.318872 -0.252466 0.306131
0.499597 -0.287293 0.291313
0.693245 -0.310936 0.282887
0.889786 -0.319826 0.279169
1.091787 -0.329041 0.273648
1.313503 -0.358279 0.260460
-0.228336 -0.013882 0.403894
-0.052537 -0.047269 0.343291
0.129687 -0.074466 0.302697
0.318939 -0.098557 0.279773
0.515097 -0.119735 0.266390
0.716156 -0.137224 0.256334
0.919848 -0.155352 0.245913
1.124408 -0.178129 0.235646
1.328927 -0.204774 0.227225
-0.267749 0.159140 0.411760
-0.083770 0.116607 0.339317
0.112399 0.088385 0.290686
0.319112 0.071608 0.265432
0.530117 0.059183 0.252290
0.740379 0.042920 0.240081
0.947014 0.017942 0.225591
1.141707 -0.009517 0.213260
1.321258 -0.032602 0.205184
-0.296885 0.328103 0.381263
-0.103686 0.294149 0.323560
0.101682 0.271115 0.282037
0.318360 0.258712 0.258938
0.539971 0.249597 0.247788
0.757276 0.233544 0.238809
0.959997 0.208385 0.228752
1.139803 0.180912 0.218016
1.301298 0.154576 0.205854
-0.313107 0.502279 0.336691
-0.110706 0.480782 0.297010
0.098178 0.464427 0.266146
0.313324 0.452588 0.246715
0.533265 0.440256 0.238829
0.750800 0.423540 0.238465
0.952614 0.402063 0.241367
1.130654 0.375392 0.240891
1.291377 0.344269 0.233615
-0.316229 0.686351 0.302996
-0.111327 0.673345 0.269578
0.092283 0.663095 0.240590
0.296407 0.648693 0.219678
0.503154 0.623504 0.210820
0.712629 0.595454 0.214307
0.920424 0.573740 0.229755
1.114561 0.551828 0.250869
1.292260 0.523705 0.268168
-0.309199 0.873998 0.285813
-0.119737 0.873678 0.245990
0.069237 0.870964 0.209208
0.262206 0.851946 0.180463
0.456732 0.809582 0.163603
0.652342 0.759492 0.161728
0.858346 0.725164 0.179990
1.069856 0.705943 0.219769
1.273271 0.685961 0.268782
-0.307795 1.068727 0.274861
-0.143605 1.083365 0.227776
0.030723 1.081968 0.183790
0.216036 1.055173 0.145196
0.403173 1.004686 0.114118
0.587841 0.942424 0.097648
0.781043 0.889218 0.105535
0.991308 0.857128 0.144874
1.208579 0.834922 0.207010
-0.330155 1.284978 0.258930
-0.177771 1.298047 0.215779
-0.010527 1.284181 0.170616
0.165829 1.247779 0.122418
0.345076 1.200068 0.075732
0.525264 1.145140 0.039100
0.707446 1.083783 0.024642
0.900176 1.024961 0.044479
1.110336 0.979363 0.095022
-0.235161 -0.246812 0.510581
-0.054541 -0.249318 0.497435
0.124880 -0.261851 0.488381
0.308314 -0.284931 0.483865
0.500712 -0.309072 0.481133
0.698256 -0.325299 0.477142
0.890462 -0.331261 0.468820
1.076191 -0.336338 0.453823
1.265847 -0.352501 0.432529
-0.297369 -0.058073 0.587889
-0.094617 -0.079311 0.529318
0.107932 -0.097701 0.489584
0.310154 -0.114855 0.470245
0.511351 -0.130717 0.458760
0.708912 -0.145865 0.446422
0.902205 -0.165735 0.430135
1.093191 -0.195047 0.411005
1.284186 -0.232672 0.391372
-0.348667 0.133212 0.631259
-0.130589 0.102016 0.555877
0.088132 0.078618 0.499286
0.304842 0.062800 0.465815
0.514936 0.049531 0.442733
0.715594 0.030460 0.420181
0.909405 -0.001453 0.396575
1.096087 -0.042496 0.374947
1.274449 -0.084957 0.356385
-0.376593 0.324144 0.623665
-0.152552 0.294196 0.559323
0.071924 0.268868 0.504580
0.293920 0.249328 0.463943
0.508978 0.231600 0.431511
0.713131 0.206323 0.402156
0.904476 0.170034 0.376895
1.079814 0.130890 0.356495
1.240869 0.094808 0.338485
-0.376983 0.513062 0.579232
-0.153212 0.488199 0.531945
0.067775 0.463652 0.486888
0.282902 0.439184 0.447069
0.492272 0.413140 0.413688
0.694904 0.383325 0.387604
0.885197 0.351333 0.370806
1.057147 0.320374 0.359952
1.213818 0.290851 0.349774
-0.358600 0.699385 0.528758
-0.141941 0.676998 0.488379
0.066785 0.654594 0.447188
0.266165 0.627725 0.408148
0.461391 0.591888 0.377195
0.657023 0.554138 0.358679
0.852680 0.526745 0.356907
1.039019 0.506807 0.368159
1.210580 0.486261 0.381685
-0.334693 0.879072 0.489867
-0.139687 0.863175 0.446830
0.047815 0.846011 0.402785
0.232218 0.818216 0.361409
0.417952 0.773164 0.328359
0.606204 0.722248 0.309773
0.804238 0.689258 0.316556
1.009174 0.676559 0.350785
1.207521 0.668464 0.396773
-0.319425 1.054060 0.460344
-0.160684 1.054050 0.414286
0.004261 1.041720 0.368558
0.181326 1.008749 0.325959
0.366154 0.958255 0.289224
0.551560 0.902511 0.263631
0.743785 0.859673 0.262252
0.950664 0.838600 0.296032
1.164920 0.829959 0.356193
-0.320943 1.234079 0.432537
-0.200525 1.251423 0.388843
-0.053130 1.238160 0.345197
0.121858 1.194740 0.302922
0.307849 1.141889 0.266359
0.494069 1.093157 0.236703
0.680614 1.049810 0.216605
0.874933 1.009369 0.221174
1.081573 0.974406 0.262858
-0.265592 -0.280720 0.680321
-0.076724 -0.281257 0.671241
0.112314 -0.289794 0.669247
0.304434 -0.305367 0.672471
0.500515 -0.321627 0.674064
0.694303 -0.332523 0.667240
0.875714 -0.336688 0.648307
1.041394 -0.338214 0.617710
1.198642 -0.342112 0.580068
-0.347558 -0.088795 0.790219
-0.125606 -0.103522 0.730697
0.091066 -0.116246 0.691341
0.301017 -0.127710 0.669410
0.502033 -0.138903 0.652286
0.691398 -0.152259 0.631160
0.869912 -0.172347 0.604331
1.041360 -0.202288 0.574072
1.210675 -0.240900 0.543454
-0.418810 0.114311 0.872525
-0.174785 0.086790 0.788331
0.060593 0.065085 0.724228
0.284661 0.050161 0.677749
0.492327 0.038350 0.637638
0.680978 0.019987 0.598617
0.858275 -0.013308 0.562936
1.032903 -0.061108 0.534124
1.208033 -0.116935 0.512375
-0.458886 0.322571 0.895209
-0.208621 0.289090 0.815250
0.031429 0.257925 0.745629
0.258789 0.231820 0.684607
0.469575 0.210429 0.625666
0.660291 0.183799 0.571032
0.838395 0.143548 0.529916
1.010333 0.096372 0.505007
1.176682 0.051717 0.490607
-0.454009 0.522694 0.851631
-0.210736 0.487826 0.787469
0.020804 0.451579 0.724942
0.237756 0.415186 0.663280
0.441287 0.380865 0.601360
0.631607 0.345502 0.545598
0.810976 0.307601 0.508830
0.979684 0.274487 0.492357
1.138759 0.249480 0.487302
-0.415754 0.706847 0.773879
-0.189131 0.669982 0.720650
0.024443 0.631757 0.665227
0.222420 0.591886 0.608789
0.410549 0.550639 0.555190
0.595397 0.509812 0.510768
0.778442 0.478623 0.488594
0.956150 0.461247 0.490839
1.125428 0.451372 0.505553
-0.369465 0.872487 0.698050
-0.171207 0.838515 0.648582
0.017223 0.803129 0.597272
0.195974 0.765424 0.547420
0.373336 0.722605 0.503246
0.554662 0.677623 0.468449
0.742352 0.648212 0.459139
0.936923 0.641891 0.483079
1.130102 0.646478 0.524241
-0.333517 1.022596 0.635719
-0.177804 1.004962 0.590164
-0.020186 0.981610 0.545401
0.147324 0.947470 0.504852
0.327543 0.902539 0.469629
0.512235 0.856405 0.440773
0.700458 0.824719 0.431574
0.901081 0.815986 0.455960
1.111280 0.822520 0.505238
-0.311039 1.166160 0.581537
-0.207760 1.176237 0.544080
-0.082926 1.172200 0.510742
0.084136 1.138091 0.480352
0.275977 1.088773 0.454657
0.467126 1.046658 0.434411
0.653886 1.015803 0.418415
0.846631 0.991621 0.416463
1.052212 0.974148 0.438812
-0.273909 -0.292847 0.866851
-0.080025 -0.293096 0.859667
0.112984 -0.299149 0.858941
0.305799 -0.311134 0.862119
0.496731 -0.323733 0.859320
0.678979 -0.332242 0.842283
0.843913 -0.334815 0.808156
0.988487 -0.332068 0.759984
1.118659 -0.326351 0.703924
-0.370409 -0.103574 0.997008
-0.146540 -0.122301 0.944981
0.074051 -0.136352 0.905352
0.286745 -0.145910 0.875095
0.484524 -0.154731 0.844148
0.663855 -0.165757 0.807183
0.826350 -0.181286 0.764793
0.975522 -0.201958 0.719917
1.116736 -0.227465 0.675163
-0.462116 0.102769 1.111372
-0.215954 0.067263 1.030276
0.024169 0.038943 0.960566
0.253149 0.021215 0.898141
0.460091 0.009348 0.835894
0.639847 -0.004924 0.774911
0.801501 -0.029616 0.722037
0.959552 -0.069118 0.682983
1.122885 -0.122089 0.657969
-0.525340 0.319602 1.168761
-0.270553 0.274605 1.079355
-0.024877 0.232652 0.995719
0.209026 0.198437 0.913298
0.422542 0.172835 0.828136
0.607204 0.149506 0.747759
0.773676 0.117486 0.687908
0.940630 0.073598 0.657206
1.112721 0.025639 0.648768
-0.531929 0.525120 1.134942
-0.287017 0.476882 1.055345
-0.052133 0.428232 0.975145
0.171432 0.382010 0.891145
0.382068 0.341753 0.803139
0.572278 0.305547 0.721180
0.745935 0.269989 0.664662
0.914688 0.238974 0.641686
1.080760 0.217945 0.642002
-0.484222 0.703235 1.029435
-0.263409 0.654280 0.965671
-0.051111 0.603940 0.897618
0.150776 0.555308 0.825222
0.346694 0.511421 0.751415
0.535435 0.470277 0.683771
0.714252 0.437981 0.640862
0.888302 0.422525 0.631412
1.059624 0.421064 0.645845
-0.414951 0.851633 0.906237
-0.225644 0.807260 0.854416
-0.040811 0.760445 0.798321
0.136317 0.717292 0.743144
0.315003 0.678701 0.691568
0.499569 0.639924 0.643544
0.683772 0.613050 0.617065
0.871222 0.609177 0.625348
1.061625 0.621637 0.658682
-0.353049 0.977081 0.799567
-0.203081 0.947688 0.757639
-0.052568 0.918095 0.716460
0.104734 0.889626 0.682394
0.280505 0.856624 0.652018
0.468201 0.821140 0.621927
0.656895 0.797807 0.605952
0.852961 0.795914 0.618306
1.059230 0.811343 0.655588
-0.303724 1.090557 0.709389
-0.201722 1.086020 0.679607
-0.094914 1.090932 0.661262
0.052859 1.081535 0.650312
0.242198 1.049168 0.635916
0.439147 1.017528 0.621666
0.630464 0.997705 0.611001
0.824259 0.985460 0.607980
1.029029 0.980198 0.620173
-0.286992 -0.310266 1.085716
-0.083435 -0.307622 1.071994
0.114901 -0.310038 1.063366
0.306165 -0.317048 1.054568
0.487308 -0.324851 1.035447
0.652863 -0.329156 0.999232
0.797737 -0.326906 0.945630
0.921486 -0.317666 0.879664
1.031521 -0.303720 0.807701
-0.383281 -0.118662 1.215206
-0.163961 -0.143557 1.172583
0.055096 -0.161683 1.131913
0.265774 -0.175022 1.090132
0.457770 -0.185996 1.041454
0.626671 -0.192871 0.982163
0.773911 -0.196616 0.916532
0.903205 -0.200005 0.850934
1.020689 -0.203528 0.786671
-0.485707 0.090533 1.344805
-0.249313 0.045017 1.271121
-0.013117 0.008680 1.197186
0.214151 -0.018331 1.121480
0.418788 -0.039114 1.043943
0.594695 -0.053153 0.964609
0.746957 -0.063745 0.889544
0.888224 -0.080516 0.828848
1.029896 -0.107837 0.783581
-0.575249 0.311304 1.433820
-0.329605 0.254144 1.338496
-0.085589 0.202528 1.239683
0.151589 0.159120 1.137005
0.369468 0.124221 1.036731
0.558199 0.098086 0.944862
0.722974 0.075813 0.869823
0.882324 0.047670 0.822051
1.047569 0.011956 0.797963
-0.607306 0.517986 1.417854
-0.375877 0.457458 1.328856
-0.143117 0.399353 1.230108
0.091084 0.347231 1.120812
0.317088 0.303612 1.012178
0.520011 0.267545 0.918333
0.699259 0.236214 0.851049
0.869548 0.208897 0.815970
1.039186 0.187332 0.803319
-0.560281 0.687810 1.287557
-0.363111 0.632088 1.225755
-0.160664 0.577203 1.151417
0.052429 0.527402 1.061858
0.272032 0.485030 0.966471
0.480704 0.447770 0.882666
0.669076 0.416930 0.826428
0.845954 0.398345 0.803351
1.019983 0.390859 0.801621
-0.467961 0.818471 1.110791
-0.304942 0.773414 1.070546
-0.136877 0.728810 1.023331
0.042544 0.691278 0.969086
0.240802 0.658769 0.906840
0.445838 0.626478 0.845684
0.640206 0.601838 0.805732
0.827984 0.592788 0.796164
1.015792 0.596083 0.807648
-0.376388 0.922038 0.952579
-0.242119 0.891142 0.922613
-0.105787 0.865526 0.895721
0.040529 0.851800 0.877367
0.219111 0.834561 0.852400
0.420345 0.809089 0.818662
0.619417 0.791144 0.796416
0.817244 0.788569 0.796511
1.018932 0.797661 0.813879
-0.298779 1.012487 0.821778
-0.192989 0.997383 0.798416
-0.092998 1.003871 0.793736
0.026782 1.023928 0.808673
0.199777 1.020945 0.813234
0.402154 1.002071 0.804076
0.604198 0.990376 0.797701
0.806008 0.987541 0.798963
1.012566 0.989694 0.807634
-0.335639 -0.364200 1.357924
-0.109136 -0.353917 1.327261
0.104840 -0.346372 1.298142
0.300221 -0.340310 1.262024
0.472838 -0.334855 1.211446
0.620223 -0.328185 1.146091
0.744090 -0.316145 1.068960
0.848576 -0.298187 0.985250
0.941799 -0.276427 0.898985
-0.410689 -0.150909 1.461522
-0.180977 -0.168942 1.413537
0.038565 -0.189392 1.365620
0.241604 -0.212848 1.313878
0.424532 -0.231579 1.248969
0.583216 -0.233600 1.163847
0.716276 -0.218708 1.066531
0.828595 -0.198165 0.972627
0.931121 -0.178953 0.886519
-0.506845 0.070996 1.583489
-0.268759 0.028813 1.502137
-0.039618 -0.013308 1.419714
0.174738 -0.056327 1.339027
0.371375 -0.096080 1.260073
0.547780 -0.119895 1.174747
0.699070 -0.119220 1.078373
0.825455 -0.103386 0.981073
0.939754 -0.087755 0.893721
-0.617634 0.296786 1.693762
-0.376944 0.234321 1.582671
-0.138085 0.175281 1.464931
0.093298 0.122502 1.347781
0.310405 0.077512 1.244580
0.509261 0.041752 1.159629
0.686844 0.018606 1.084191
0.840980 0.008977 1.008483
0.980810 0.004768 0.934708
-0.682131 0.503095 1.699350
-0.466597 0.433318 1.599319
-0.236364 0.367633 1.479446
0.007431 0.312209 1.344731
0.246960 0.271051 1.220618
0.466408 0.239742 1.127082
0.663021 0.210254 1.063716
0.840295 0.180795 1.013736
1.004488 0.154132 0.964016
-0.641513 0.663914 1.547372
-0.477575 0.605296 1.495152
-0.287957 0.551027 1.419726
-0.056594 0.503532 1.310208
0.192675 0.467029 1.191912
0.425558 0.440690 1.098754
0.632814 0.416283 1.039866
0.820270 0.387768 1.000982
0.995167 0.357056 0.965210
-0.525440 0.777515 1.313823
-0.401679 0.737497 1.296460
-0.263004 0.707204 1.275141
-0.074834 0.682467 1.225176
0.158519 0.655932 1.145789
0.392612 0.632397 1.072555
0.606679 0.613577 1.024993
0.802809 0.593639 0.994803
0.987101 0.570065 0.967975
-0.402018 0.861999 1.099765
-0.292783 0.836460 1.088312
-0.183174 0.826725 1.090393
-0.046784 0.834891 1.097238
0.147372 0.832106 1.075021
0.370238 0.815423 1.035555
0.586916 0.802427 1.007919
0.792520 0.793599 0.992934
0.990375 0.783963 0.981083
-0.295580 0.934422 0.925692
-0.190602 0.919459 0.910269
-0.090579 0.921600 0.911903
0.004576 0.963344 0.953637
0.150825 0.996589 0.988056
0.355472 0.992581 0.986226
0.571246 0.985974 0.981916
0.785472 0.989909 0.987938
0.999996 0.999994 0.999994
