luts/sample.cube
TITLE "MagicHour"
# Created by Photon 3D ColorGrading
DOMAIN_MIN 0 0 0
DOMAIN_MAX 1 1 1
LUT_3D_SIZE 5
-0.000003 0.000001 0.000001
0.224823 -0.116523 -0.117763
0.493768 -0.225614 -0.227171
0.850914 -0.261796 -0.262608
1.322461 -0.298498 -0.297146
-0.111647 0.216149 -0.119135
0.201428 0.185798 -0.156903
0.557930 0.144853 -0.211442
0.981527 0.133593 -0.229808
1.353008 0.152889 -0.168019
-0.212954 0.473601 -0.228438
0.136666 0.486711 -0.254944
0.561748 0.502402 -0.268995
1.067672 0.517913 -0.222830
1.414855 0.493884 -0.056283
-0.239018 0.810067 -0.263869
0.120736 0.852122 -0.297180
0.521546 0.867399 -0.318827
0.987337 0.840720 -0.288251
1.362215 0.730016 -0.104396
-0.277916 1.264182 -0.314407
0.115824 1.282689 -0.340117
0.475772 1.219963 -0.342920
0.784499 1.096453 -0.322669
1.136131 0.991414 -0.290892
-0.121486 -0.127080 0.233980
0.180768 -0.175257 0.175258
0.497697 -0.263707 0.110594
0.878370 -0.304009 0.089989
1.335302 -0.353993 0.071468
-0.196084 0.184987 0.219028
0.139393 0.106715 0.109378
0.542205 0.080166 0.079037
0.968236 0.051173 0.063681
1.349067 0.029359 0.068281
-0.266962 0.493175 0.127723
0.120404 0.462965 0.070163
0.561402 0.464968 0.070133
1.005618 0.451126 0.106839
1.353754 0.400684 0.132775
-0.288552 0.859808 0.090505
0.090864 0.872054 0.027369
0.490064 0.832548 0.005087
0.908325 0.762847 0.035373
1.317040 0.700094 0.141310
-0.330315 1.308052 0.065842
0.031180 1.312825 -0.008982
0.387761 1.242892 -0.099049
0.726860 1.090769 -0.118814
1.129983 0.984647 -0.056091
-0.235161 -0.246812 0.510581
0.124880 -0.261851 0.488381
0.500712 -0.309072 0.481133
0.890462 -0.331261 0.468820
1.265847 -0.352501 0.432529
-0.348667 0.133212 0.631259
0.088132 0.078618 0.499286
0.514936 0.049531 0.442733
0.909405 -0.001453 0.396575
1.274449 -0.084957 0.356385
-0.376983 0.513062 0.579232
0.067775 0.463652 0.486888
0.492272 0.413140 0.413688
0.885197 0.351333 0.370806
1.213818 0.290851 0.349774
-0.334693 0.879072 0.489867
0.047815 0.846011 0.402785
0.417952 0.773164 0.328359
0.804238 0.689258 0.316556
1.207521 0.668464 0.396773
-0.320943 1.234079 0.432537
-0.053130 1.238160 0.345197
0.307849 1.141889 0.266359
0.680614 1.049810 0.216605
1.081573 0.974406 0.262858
-0.273909 -0.292847 0.866851
0.112984 -0.299149 0.858941
0.496731 -0.323733 0.859320
0.843913 -0.334815 0.808156
1.118659 -0.326351 0.703924
-0.462116 0.102769 1.111372
0.024169 0.038943 0.960566
0.460091 0.009348 0.835894
0.801501 -0.029616 0.722037
1.122885 -0.122089 0.657969
-0.531929 0.525120 1.134942
-0.052133 0.428232 0.975145
0.382068 0.341753 0.803139
0.745935 0.269989 0.664662
1.080760 0.217945 0.642002
-0.414951 0.851633 0.906237
-0.040811 0.760445 0.798321
0.315003 0.678701 0.691568
0.683772 0.613050 0.617065
1.061625 0.621637 0.658682
-0.303724 1.090557 0.709389
-0.094914 1.090932 0.661262
0.242198 1.049168 0.635916
0.630464 0.997705 0.611001
1.029029 0.980198 0.620173
-0.335639 -0.364200 1.357924
0.104840 -0.346372 1.298142
0.472838 -0.334855 1.211446
0.744090 -0.316145 1.068960
0.941799 -0.276427 0.898985
-0.506845 0.070996 1.583489
-0.039618 -0.013308 1.419714
0.371375 -0.096080 1.260073
0.699070 -0.119220 1.078373
0.939754 -0.087755 0.893721
-0.682131 0.503095 1.699350
-0.236364 0.367633 1.479446
0.246960 0.271051 1.220618
0.663021 0.210254 1.063716
1.004488 0.154132 0.964016
-0.525440 0.777515 1.313823
-0.263004 0.707204 1.275141
0.158519 0.655932 1.145789
0.606679 0.613577 1.024993
0.987101 0.570065 0.967975
-0.295580 0.934422 0.925692
-0.090579 0.921600 0.911903
0.150825 0.996589 0.988056
0.571246 0.985974 0.981916
0.999996 0.999994 0.999994
