luts/sample.cube
TITLE "MagicHour"
# Created by Photon 3D ColorGrading
DOMAIN_MIN 0 0 0
DOMAIN_MAX 1 1 1
LUT_3D_SIZE 33
-0.000003 0.000001 0.000001
0.027777 -0.014003 -0.014180
0.055563 -0.028087 -0.028440
0.083374 -0.042320 -0.042843
0.111242 -0.056751 -0.057439
0.139225 -0.071407 -0.072250
0.167406 -0.086283 -0.087270
0.195893 -0.101344 -0.102464
0.224823 -0.116523 -0.117763
0.254357 -0.131724 -0.133071
0.284695 -0.146816 -0.148253
0.316014 -0.161659 -0.163166
0.348458 -0.176110 -0.177666
0.382385 -0.189914 -0.191497
0.417843 -0.202916 -0.204506
0.454934 -0.214894 -0.216476
0.493768 -0.225614 -0.227171
0.533988 -0.235193 -0.236711
0.575525 -0.243522 -0.244989
0.618563 -0.250193 -0.251592
0.662857 -0.255248 -0.256564
0.708194 -0.258793 -0.260012
0.754575 -0.260879 -0.261983
0.802153 -0.261666 -0.262634
0.850914 -0.261796 -0.262608
0.901062 -0.261809 -0.262445
0.952971 -0.262215 -0.262651
1.007527 -0.263785 -0.263989
1.065098 -0.267074 -0.267016
1.125790 -0.272385 -0.272036
1.189407 -0.279707 -0.279040
1.255306 -0.288649 -0.287645
1.322461 -0.298498 -0.297146
-0.013451 0.026731 -0.014377
0.015959 0.014353 -0.026904
0.045391 0.001907 -0.039500
0.074873 -0.010668 -0.052227
0.104439 -0.023430 -0.065141
0.134132 -0.036417 -0.078285
0.164012 -0.049654 -0.091685
0.194161 -0.063135 -0.105337
0.224685 -0.076825 -0.119211
0.255724 -0.090654 -0.133238
0.287463 -0.104508 -0.147308
0.320077 -0.118253 -0.161288
0.353719 -0.131740 -0.175028
0.388749 -0.144722 -0.188287
0.425245 -0.157016 -0.200873
0.463334 -0.168384 -0.212548
0.503139 -0.178590 -0.223067
0.544311 -0.187737 -0.232528
0.586768 -0.195731 -0.240828
0.630700 -0.202161 -0.247544
0.675923 -0.206969 -0.252603
0.722162 -0.210307 -0.256143
0.769319 -0.212264 -0.258233
0.817472 -0.212969 -0.258978
0.866567 -0.212996 -0.258956
0.916755 -0.212802 -0.258625
0.968341 -0.212814 -0.258411
1.022052 -0.213669 -0.258940
1.078213 -0.215865 -0.260729
1.136947 -0.219691 -0.264089
1.198113 -0.225163 -0.269056
1.261193 -0.231974 -0.275341
1.325330 -0.239539 -0.282371
-0.026973 0.053463 -0.028829
0.004034 0.042680 -0.039745
0.035078 0.031839 -0.050720
0.066196 0.020884 -0.061817
0.097420 0.009755 -0.073097
0.128784 -0.001602 -0.084622
0.160328 -0.013234 -0.096443
0.192109 -0.025163 -0.108591
0.224209 -0.037382 -0.121065
0.256746 -0.049844 -0.133823
0.289891 -0.062453 -0.146779
0.323819 -0.075082 -0.159808
0.358691 -0.087577 -0.172759
0.394870 -0.099702 -0.185401
0.432458 -0.111242 -0.197511
0.471606 -0.121950 -0.208829
0.512445 -0.131587 -0.219109
0.554635 -0.140239 -0.228418
0.598095 -0.147815 -0.236650
0.643002 -0.153932 -0.243395
0.689158 -0.158532 -0.248567
0.736267 -0.161747 -0.252274
0.784185 -0.163629 -0.254534
0.832909 -0.164257 -0.255373
0.882330 -0.164174 -0.255303
0.932549 -0.163745 -0.254728
0.983791 -0.163330 -0.254014
1.036612 -0.163448 -0.253657
1.091298 -0.164538 -0.254131
1.147982 -0.166867 -0.255750
1.206587 -0.170478 -0.258593
1.266721 -0.175147 -0.262467
1.327706 -0.180414 -0.266930
-0.040636 0.080209 -0.043423
-0.008094 0.070959 -0.052808
0.024497 0.061660 -0.062248
0.057180 0.052257 -0.071802
0.089990 0.042688 -0.081540
0.122952 0.032888 -0.091537
0.156092 0.022794 -0.101864
0.189449 0.012359 -0.112578
0.223084 0.001570 -0.123704
0.257101 -0.009543 -0.135222
0.291661 -0.020903 -0.147065
0.326934 -0.032388 -0.159120
0.363088 -0.043846 -0.171234
0.400486 -0.055046 -0.183190
0.439253 -0.065759 -0.194740
0.479552 -0.075723 -0.205609
0.521527 -0.084703 -0.215545
0.564841 -0.092767 -0.224591
0.609413 -0.099830 -0.232638
0.655401 -0.105539 -0.239298
0.702577 -0.109858 -0.244490
0.750614 -0.112898 -0.248279
0.799344 -0.114635 -0.250578
0.848638 -0.115224 -0.251500
0.898383 -0.115071 -0.251403
0.948617 -0.114459 -0.250570
0.999500 -0.113668 -0.249318
1.051422 -0.113118 -0.248038
1.104635 -0.113204 -0.247183
1.159297 -0.114180 -0.247083
1.215399 -0.116115 -0.247865
1.272672 -0.118858 -0.249425
1.330605 -0.122063 -0.251438
-0.054484 0.106998 -0.058205
-0.020495 0.099197 -0.066174
0.013550 0.091350 -0.074197
0.047701 0.083404 -0.082335
0.081993 0.075295 -0.090660
0.116449 0.066950 -0.099257
0.151088 0.058297 -0.108211
0.185939 0.049275 -0.117593
0.221051 0.039859 -0.127446
0.256520 0.030062 -0.137765
0.292499 0.019953 -0.148497
0.329155 0.009642 -0.159541
0.366655 -0.000718 -0.170748
0.405365 -0.010914 -0.181919
0.445413 -0.020709 -0.192799
0.486968 -0.029848 -0.203117
0.530171 -0.038107 -0.212631
0.574691 -0.045543 -0.221360
0.620442 -0.052072 -0.229191
0.667574 -0.057364 -0.235742
0.715855 -0.061361 -0.240892
0.764939 -0.064161 -0.244679
0.814553 -0.065777 -0.247018
0.864513 -0.066206 -0.247790
0.914655 -0.065830 -0.247393
0.964940 -0.064932 -0.246110
1.015449 -0.063753 -0.244183
1.066436 -0.062589 -0.241881
1.118149 -0.061778 -0.239636
1.170788 -0.061563 -0.237802
1.224418 -0.062034 -0.236557
1.278892 -0.063105 -0.235879
1.333852 -0.064525 -0.235544
-0.068536 0.133887 -0.073193
-0.033211 0.127431 -0.079892
0.002175 0.120928 -0.086647
0.037673 0.114323 -0.093522
0.073322 0.107553 -0.100593
0.109147 0.100541 -0.107949
0.145167 0.093213 -0.115679
0.181410 0.085506 -0.123860
0.217925 0.077385 -0.132540
0.254804 0.068862 -0.141724
0.292197 0.059995 -0.151368
0.330270 0.050889 -0.161379
0.369188 0.041687 -0.171618
0.409312 0.032588 -0.181905
0.450770 0.023823 -0.191987
0.493728 0.015636 -0.201604
0.538324 0.008236 -0.210527
0.584230 0.001581 -0.218752
0.631364 -0.004244 -0.226154
0.679841 -0.008951 -0.232385
0.729345 -0.012554 -0.237378
0.779533 -0.015090 -0.241085
0.830098 -0.016506 -0.243310
0.880743 -0.016768 -0.243862
0.931261 -0.016219 -0.243110
0.981564 -0.015109 -0.241273
1.031668 -0.013601 -0.238544
1.081689 -0.011910 -0.235105
1.131886 -0.010343 -0.231397
1.182516 -0.009135 -0.227814
1.233727 -0.008396 -0.224588
1.285489 -0.008089 -0.221765
1.337586 -0.008042 -0.219204
-0.082783 0.160962 -0.088379
-0.046245 0.155734 -0.093971
-0.009647 0.150453 -0.099627
0.027064 0.145064 -0.105414
0.063930 0.139500 -0.111411
0.100985 0.133689 -0.117704
0.138254 0.127560 -0.124378
0.175775 0.121054 -0.131508
0.213604 0.114143 -0.139137
0.251837 0.106837 -0.147271
0.290629 0.099191 -0.155870
0.330141 0.091304 -0.164846
0.370533 0.083312 -0.174067
0.412164 0.075394 -0.183375
0.455149 0.067761 -0.192539
0.499642 0.060633 -0.201321
0.545775 0.054201 -0.209510
0.593213 0.048429 -0.217090
0.641863 0.043390 -0.223942
0.691808 0.039329 -0.229744
0.742699 0.036231 -0.234413
0.794149 0.034070 -0.237861
0.845770 0.032920 -0.239818
0.897156 0.032849 -0.239997
0.948076 0.033581 -0.238699
0.998388 0.034931 -0.236108
1.048062 0.036746 -0.232391
1.097096 0.038873 -0.227669
1.145782 0.041038 -0.222411
1.194453 0.043010 -0.217064
1.243344 0.044668 -0.211916
1.292540 0.046011 -0.207069
1.341945 0.047158 -0.202435
-0.097179 0.188335 -0.103718
-0.059563 0.184212 -0.108384
-0.021891 0.180029 -0.113121
0.015892 0.175725 -0.118006
0.053833 0.171233 -0.123117
0.091973 0.166489 -0.128533
0.130355 0.161432 -0.134330
0.169031 0.156015 -0.140568
0.208069 0.150222 -0.147277
0.247574 0.144071 -0.154452
0.287709 0.137618 -0.162052
0.328653 0.130955 -0.169996
0.370567 0.124203 -0.178168
0.413798 0.117522 -0.186432
0.458418 0.111095 -0.194585
0.504555 0.105108 -0.202426
0.552330 0.099717 -0.209776
0.601394 0.094884 -0.216623
0.651636 0.090664 -0.222860
0.703133 0.087282 -0.228162
0.755565 0.084787 -0.232345
0.808464 0.083134 -0.235308
0.861299 0.082371 -0.236754
0.913527 0.082583 -0.236310
0.964903 0.083548 -0.234233
1.015249 0.085121 -0.230671
1.064502 0.087183 -0.225772
1.112563 0.089626 -0.219621
1.159784 0.092200 -0.212734
1.206590 0.094686 -0.205620
1.253310 0.096956 -0.198619
1.300129 0.098987 -0.191874
1.347055 0.100865 -0.185324
-0.111647 0.216149 -0.119135
-0.073092 0.213008 -0.123058
-0.034483 0.209799 -0.127063
0.004231 0.206453 -0.131232
0.043105 0.202908 -0.135643
0.082193 0.199106 -0.140368
0.121557 0.195001 -0.145464
0.161270 0.190565 -0.150972
0.201428 0.185798 -0.156903
0.242156 0.180729 -0.163236
0.283624 0.175420 -0.169922
0.325998 0.169961 -0.176881
0.369421 0.164457 -0.184011
0.414246 0.159050 -0.191193
0.460536 0.153886 -0.198263
0.508399 0.149112 -0.205060
0.557930 0.144853 -0.211442
0.608763 0.141066 -0.217397
0.660769 0.137792 -0.222827
0.713995 0.135216 -0.227425
0.768076 0.133379 -0.230985
0.822488 0.132252 -0.233349
0.876586 0.131894 -0.234136
0.929685 0.132400 -0.232880
0.981527 0.133593 -0.229808
1.031904 0.135359 -0.225053
1.080733 0.137603 -0.218763
1.127844 0.140236 -0.211020
1.173673 0.143028 -0.202416
1.218757 0.145767 -0.193535
1.263523 0.148326 -0.184769
1.308244 0.150676 -0.176286
1.353008 0.152889 -0.168019
-0.126081 0.244564 -0.134524
-0.086719 0.242290 -0.137884
-0.047308 0.239938 -0.141337
-0.007794 0.237437 -0.144969
0.031882 0.234727 -0.148858
0.071791 0.231759 -0.153063
0.112015 0.228504 -0.157623
0.152653 0.224954 -0.162555
0.193823 0.221128 -0.167847
0.235670 0.217070 -0.173458
0.278382 0.212850 -0.179325
0.322125 0.208554 -0.185367
0.367036 0.204277 -0.191491
0.413472 0.200140 -0.197592
0.461462 0.196250 -0.203553
0.511089 0.192714 -0.209255
0.562434 0.189623 -0.214590
0.615106 0.186928 -0.219556
0.668959 0.184654 -0.224065
0.724005 0.182943 -0.227825
0.779827 0.181823 -0.230605
0.835804 0.181290 -0.232147
0.891146 0.181418 -0.231959
0.945178 0.182222 -0.229735
0.997597 0.183584 -0.225550
1.048076 0.185472 -0.219438
1.096536 0.187797 -0.211585
1.142782 0.190466 -0.202123
1.187355 0.193264 -0.191738
1.230913 0.195993 -0.181100
1.273980 0.198534 -0.170647
1.316907 0.200864 -0.160554
1.359837 0.203057 -0.150729
-0.140346 0.273755 -0.149752
-0.100302 0.272244 -0.152718
-0.060210 0.270649 -0.155785
-0.020015 0.268897 -0.159044
0.020351 0.266929 -0.162567
0.060972 0.264709 -0.166404
0.101951 0.262221 -0.170575
0.143411 0.259479 -0.175071
0.185496 0.256520 -0.179855
0.228371 0.253402 -0.184868
0.272238 0.250205 -0.190026
0.317272 0.247014 -0.195244
0.363601 0.243910 -0.200436
0.411591 0.241003 -0.205505
0.461242 0.238358 -0.210378
0.512619 0.236044 -0.214979
0.565791 0.234119 -0.219232
0.620345 0.232527 -0.223148
0.676114 0.231275 -0.226650
0.733052 0.230448 -0.229481
0.790649 0.230042 -0.231419
0.848274 0.230063 -0.232157
0.905061 0.230584 -0.231106
0.960026 0.231692 -0.227615
1.012896 0.233278 -0.221907
1.063433 0.235269 -0.214124
1.111553 0.237588 -0.204475
1.157019 0.240148 -0.193133
1.200494 0.242749 -0.180888
1.242766 0.245211 -0.168502
1.284455 0.247431 -0.156453
1.325976 0.249403 -0.144909
1.367493 0.251221 -0.133715
-0.154289 0.303897 -0.164667
-0.113669 0.303065 -0.167388
-0.072999 0.302147 -0.170214
-0.032221 0.301068 -0.173238
0.008742 0.299774 -0.176529
0.049990 0.298238 -0.180124
0.091644 0.296460 -0.184026
0.133849 0.294468 -0.188204
0.176766 0.292317 -0.192598
0.220573 0.290078 -0.197126
0.265489 0.287836 -0.201689
0.311706 0.285677 -0.206192
0.359359 0.283670 -0.210557
0.408808 0.281911 -0.214686
0.460002 0.280432 -0.218549
0.512972 0.279260 -0.222114
0.567762 0.278416 -0.225349
0.623936 0.277832 -0.228289
0.681411 0.277518 -0.230832
0.740283 0.277562 -0.232660
0.799828 0.277911 -0.233583
0.859223 0.278542 -0.233279
0.917462 0.279512 -0.231046
0.973436 0.280884 -0.226154
1.026954 0.282570 -0.218915
1.077722 0.284523 -0.209422
1.125664 0.286676 -0.197919
1.170552 0.288925 -0.184661
1.213172 0.291098 -0.170553
1.254429 0.293046 -0.156432
1.295028 0.294695 -0.142809
1.335431 0.296061 -0.129830
1.375826 0.297258 -0.117283
-0.167736 0.335154 -0.179099
-0.126627 0.334939 -0.181698
-0.085465 0.334639 -0.184403
-0.044184 0.334181 -0.187306
-0.002701 0.333514 -0.190472
0.039094 0.332620 -0.193927
0.081338 0.331508 -0.197662
0.124190 0.330221 -0.201626
0.167826 0.328822 -0.205742
0.212440 0.327392 -0.209907
0.258270 0.326025 -0.214003
0.305527 0.324805 -0.217924
0.354351 0.323797 -0.221589
0.405109 0.323086 -0.224897
0.457721 0.322672 -0.227849
0.512201 0.322556 -0.230447
0.568595 0.322732 -0.232684
0.626446 0.323123 -0.234621
0.685656 0.323714 -0.236168
0.746302 0.324541 -0.237011
0.807594 0.325552 -0.236933
0.868605 0.326717 -0.235537
0.928201 0.328061 -0.232036
0.985232 0.329600 -0.225730
1.039464 0.331283 -0.216900
1.090551 0.333070 -0.205619
1.138461 0.334895 -0.192211
1.182979 0.336640 -0.177021
1.224996 0.338170 -0.161051
1.265529 0.339376 -0.145211
1.305350 0.340217 -0.130035
1.344964 0.340740 -0.115646
1.384572 0.341078 -0.101770
-0.180508 0.367669 -0.192871
-0.138976 0.368032 -0.195443
-0.097383 0.368313 -0.198119
-0.055658 0.368444 -0.200986
-0.013707 0.368380 -0.204104
0.028587 0.368105 -0.207493
0.071373 0.367640 -0.211129
0.114819 0.367029 -0.214951
0.159114 0.366346 -0.218863
0.204462 0.365675 -0.222747
0.251113 0.365111 -0.226470
0.299285 0.364739 -0.229922
0.349123 0.364618 -0.233025
0.401010 0.364825 -0.235666
0.454853 0.365342 -0.237860
0.510654 0.366145 -0.239627
0.568453 0.367209 -0.240982
0.627771 0.368446 -0.242013
0.688509 0.369821 -0.242643
0.750747 0.371327 -0.242556
0.813640 0.372903 -0.241512
0.876205 0.374508 -0.239094
0.937212 0.376121 -0.234461
0.995279 0.377719 -0.226720
1.050177 0.379272 -0.216191
1.101661 0.380740 -0.203101
1.149696 0.382061 -0.187806
1.194053 0.383107 -0.170704
1.235723 0.383786 -0.152894
1.275807 0.384039 -0.135347
1.315136 0.383867 -0.118611
1.354248 0.383346 -0.102786
1.393354 0.382629 -0.087542
-0.192421 0.401549 -0.205802
-0.150512 0.402470 -0.208416
-0.108533 0.403315 -0.211128
-0.066405 0.404022 -0.214021
-0.024028 0.404549 -0.217150
0.018724 0.404885 -0.220528
0.062003 0.405052 -0.224128
0.105986 0.405099 -0.227878
0.150861 0.405097 -0.231676
0.196841 0.405131 -0.235395
0.244180 0.405296 -0.238887
0.293100 0.405672 -0.242022
0.343749 0.406312 -0.244710
0.396523 0.407290 -0.246822
0.451323 0.408574 -0.248398
0.508162 0.410129 -0.249475
0.567092 0.411918 -0.250077
0.627619 0.413848 -0.250315
0.689646 0.415864 -0.250122
0.753263 0.417920 -0.249172
0.817573 0.419943 -0.247212
0.881526 0.421873 -0.243790
0.943802 0.423639 -0.238009
1.002893 0.425161 -0.228920
1.058532 0.426429 -0.216847
1.110606 0.427415 -0.202069
1.158974 0.428058 -0.184993
1.203403 0.428216 -0.166074
1.244979 0.427852 -0.146484
1.284878 0.426965 -0.127252
1.323977 0.425595 -0.108944
1.362842 0.423853 -0.091641
1.401696 0.421907 -0.074974
-0.203294 0.436856 -0.217714
-0.161040 0.438330 -0.220415
-0.118708 0.439735 -0.223207
-0.076209 0.441015 -0.226167
-0.033436 0.442132 -0.229343
0.009739 0.443077 -0.232745
0.053470 0.443871 -0.236341
0.097935 0.444559 -0.240057
0.143330 0.445209 -0.243786
0.189872 0.445904 -0.247390
0.237815 0.446731 -0.250713
0.287354 0.447762 -0.253622
0.338612 0.449040 -0.256029
0.392005 0.450635 -0.257783
0.447484 0.452518 -0.258920
0.505081 0.454650 -0.259477
0.564848 0.456985 -0.259492
0.626278 0.459426 -0.259098
0.689284 0.461908 -0.258231
0.753982 0.464347 -0.256555
0.819440 0.466662 -0.253806
0.884553 0.468769 -0.249516
0.947937 0.470543 -0.242733
1.008028 0.471843 -0.232457
1.064537 0.472674 -0.219036
1.117211 0.473008 -0.202771
1.166027 0.472799 -0.184098
1.210736 0.471896 -0.163508
1.252445 0.470318 -0.142236
1.292381 0.468123 -0.121356
1.331458 0.465397 -0.101456
1.370268 0.462281 -0.082612
1.409054 0.458957 -0.064436
-0.212954 0.473601 -0.228438
-0.170383 0.475631 -0.231256
-0.127724 0.477600 -0.234157
-0.084880 0.479455 -0.237209
-0.041741 0.481164 -0.240456
0.001823 0.482717 -0.243905
0.045963 0.484129 -0.247523
0.090850 0.485441 -0.251238
0.136666 0.486711 -0.254944
0.183613 0.488010 -0.258505
0.231941 0.489416 -0.261760
0.281872 0.490996 -0.264563
0.333555 0.492792 -0.266810
0.387404 0.494865 -0.268340
0.443343 0.497184 -0.269191
0.501423 0.499713 -0.269401
0.561748 0.502402 -0.268995
0.623852 0.505162 -0.268108
0.687631 0.507919 -0.266690
0.753043 0.510571 -0.264452
0.819241 0.513016 -0.261100
0.885185 0.515141 -0.256124
0.949450 0.516767 -0.248546
1.010392 0.517684 -0.237328
1.067672 0.517913 -0.222830
1.121129 0.517454 -0.205357
1.170587 0.516244 -0.185356
1.215764 0.514130 -0.163315
1.257803 0.511190 -0.140508
1.297954 0.507545 -0.118045
1.337157 0.503329 -0.096538
1.376032 0.498711 -0.076078
1.414855 0.493884 -0.056283
-0.221253 0.511744 -0.237825
-0.178389 0.514334 -0.240779
-0.135429 0.516869 -0.243806
-0.092270 0.519302 -0.246968
-0.048796 0.521602 -0.250302
-0.004881 0.523756 -0.253813
0.039623 0.525774 -0.257471
0.084875 0.527686 -0.261208
0.131048 0.529539 -0.264919
0.178336 0.531391 -0.268475
0.226978 0.533309 -0.271712
0.277189 0.535349 -0.274481
0.329117 0.537552 -0.276672
0.383166 0.539963 -0.278111
0.439271 0.542562 -0.278829
0.497490 0.545315 -0.278855
0.557930 0.548177 -0.278211
0.620118 0.551074 -0.277061
0.684015 0.553924 -0.275344
0.749822 0.556591 -0.272698
0.816588 0.558971 -0.268878
0.883175 0.560936 -0.263407
0.948156 0.562250 -0.255280
1.009902 0.562645 -0.243417
1.068038 0.562153 -0.228179
1.122226 0.560752 -0.209845
1.172386 0.558412 -0.188844
1.218178 0.554968 -0.165630
1.260700 0.550552 -0.141486
1.301196 0.545347 -0.117546
1.340623 0.539529 -0.094451
1.379632 0.533296 -0.072327
1.418540 0.526854 -0.050830
-0.228069 0.551195 -0.245756
-0.184943 0.554345 -0.248859
-0.141713 0.557445 -0.252025
-0.098270 0.560452 -0.255307
-0.054501 0.563334 -0.258739
-0.010278 0.566075 -0.262325
0.034536 0.568678 -0.266036
0.080088 0.571161 -0.269810
0.126536 0.573558 -0.273551
0.174056 0.575912 -0.277132
0.222870 0.578273 -0.280398
0.273180 0.580685 -0.283199
0.325130 0.583183 -0.285424
0.379121 0.585798 -0.286891
0.435110 0.588522 -0.287616
0.493180 0.591332 -0.287609
0.553464 0.594187 -0.286880
0.615510 0.597030 -0.285602
0.679306 0.599779 -0.283716
0.745098 0.602280 -0.280857
0.811957 0.604421 -0.276801
0.878768 0.606061 -0.271083
0.944143 0.606914 -0.262698
1.006472 0.606654 -0.250544
1.065312 0.605321 -0.234944
1.120273 0.602893 -0.216146
1.171217 0.599342 -0.194536
1.217728 0.594493 -0.170488
1.260841 0.588529 -0.145264
1.301772 0.581687 -0.120009
1.341475 0.574185 -0.095393
1.380637 0.566251 -0.071600
1.419630 0.558103 -0.048356
-0.233325 0.591834 -0.252153
-0.189972 0.595535 -0.255414
-0.146509 0.599189 -0.258728
-0.102824 0.602754 -0.262140
-0.058801 0.606199 -0.265679
-0.014318 0.609503 -0.269348
0.030755 0.612659 -0.273120
0.076556 0.615675 -0.276939
0.123232 0.618569 -0.280715
0.170945 0.621368 -0.284335
0.219888 0.624103 -0.287650
0.270213 0.626806 -0.290523
0.322026 0.629501 -0.292844
0.375706 0.632205 -0.294425
0.431273 0.634922 -0.295265
0.488861 0.637639 -0.295355
0.548553 0.640326 -0.294719
0.609917 0.642951 -0.293530
0.673373 0.645403 -0.291585
0.738807 0.647539 -0.288657
0.805336 0.649256 -0.284544
0.871968 0.650396 -0.278797
0.937398 0.650640 -0.270437
1.000084 0.649617 -0.258371
1.059532 0.647377 -0.242893
1.115262 0.643885 -0.224154
1.167046 0.639101 -0.202446
1.214365 0.632833 -0.178008
1.258150 0.625301 -0.152039
1.299552 0.616790 -0.125672
1.339518 0.607556 -0.099618
1.378772 0.597858 -0.074142
1.417762 0.587934 -0.049085
-0.237004 0.633529 -0.256997
-0.193467 0.637760 -0.260424
-0.149816 0.641945 -0.263896
-0.105937 0.646043 -0.267448
-0.061717 0.650019 -0.271106
-0.017042 0.653848 -0.274872
0.028206 0.657514 -0.278723
0.074146 0.661011 -0.282611
0.120900 0.664344 -0.286457
0.168603 0.667524 -0.290157
0.217434 0.670562 -0.293573
0.267556 0.673474 -0.296568
0.319094 0.676275 -0.299034
0.372404 0.678963 -0.300781
0.427476 0.681554 -0.301801
0.484428 0.684044 -0.302074
0.543360 0.686415 -0.301610
0.603891 0.688660 -0.300580
0.666472 0.690661 -0.298774
0.731055 0.692277 -0.295970
0.796830 0.693415 -0.291989
0.862872 0.693916 -0.286408
0.927969 0.693436 -0.278275
0.990658 0.691568 -0.266505
1.050369 0.688352 -0.251317
1.106587 0.683751 -0.232832
1.159032 0.677722 -0.211283
1.207105 0.670048 -0.186787
1.251614 0.660975 -0.160466
1.293615 0.650819 -0.133418
1.334015 0.639871 -0.106364
1.373552 0.628416 -0.079638
1.412734 0.616716 -0.053193
-0.239174 0.676177 -0.260353
-0.195494 0.680902 -0.263952
-0.151699 0.685581 -0.267587
-0.107675 0.690170 -0.271288
-0.063310 0.694632 -0.275072
-0.018497 0.698936 -0.278942
0.026869 0.703055 -0.282879
0.072894 0.706975 -0.286838
0.119682 0.710682 -0.290753
0.167351 0.714172 -0.294527
0.216061 0.717436 -0.298032
0.265963 0.720472 -0.301137
0.317170 0.723283 -0.303735
0.370004 0.725847 -0.305649
0.424495 0.728185 -0.306849
0.480747 0.730304 -0.307317
0.538512 0.732237 -0.307195
0.597874 0.733956 -0.306475
0.659308 0.735339 -0.304945
0.722583 0.736298 -0.302493
0.787079 0.736741 -0.298928
0.852068 0.736496 -0.293822
0.916455 0.735207 -0.286272
0.978872 0.732441 -0.275216
1.038677 0.728239 -0.260809
1.095290 0.722555 -0.243097
1.148351 0.715335 -0.222218
1.197158 0.706332 -0.198125
1.242358 0.695801 -0.171825
1.284892 0.684078 -0.144361
1.325619 0.671477 -0.116471
1.365298 0.658312 -0.088583
1.404514 0.644873 -0.060796
-0.240005 0.719739 -0.262389
-0.196227 0.724904 -0.266172
-0.152334 0.730020 -0.269982
-0.108212 0.735042 -0.273840
-0.063754 0.739928 -0.277760
-0.018859 0.744641 -0.281743
0.026568 0.749146 -0.285772
0.072616 0.753414 -0.289811
0.119373 0.757421 -0.293802
0.166937 0.761143 -0.297665
0.215432 0.764554 -0.301286
0.264962 0.767634 -0.304549
0.315602 0.770378 -0.307354
0.367644 0.772736 -0.309527
0.421165 0.774737 -0.311023
0.476290 0.776390 -0.311807
0.532792 0.777761 -0.312014
0.590724 0.778842 -0.311649
0.650581 0.779496 -0.310490
0.712399 0.779611 -0.308357
0.775477 0.779160 -0.305166
0.839175 0.777995 -0.300546
0.902552 0.775765 -0.293659
0.964399 0.772044 -0.283514
1.024185 0.766943 -0.270351
1.081300 0.760397 -0.254119
1.134532 0.751952 -0.234072
1.183866 0.741697 -0.210735
1.229761 0.729867 -0.184955
1.272873 0.716737 -0.157558
1.313995 0.702635 -0.129287
1.353891 0.687900 -0.100660
1.393217 0.672857 -0.071937
-0.239802 0.764294 -0.263409
-0.195940 0.769829 -0.267364
-0.151963 0.775314 -0.271337
-0.107765 0.780696 -0.275345
-0.063242 0.785932 -0.279397
-0.018303 0.790975 -0.283493
0.027134 0.795784 -0.287619
0.073140 0.800318 -0.291743
0.119782 0.804539 -0.295816
0.167129 0.808408 -0.299768
0.215280 0.811877 -0.303500
0.264333 0.814911 -0.306911
0.314364 0.817490 -0.309909
0.365619 0.819536 -0.312331
0.418147 0.821081 -0.314125
0.472054 0.822144 -0.315246
0.527161 0.822824 -0.315814
0.583538 0.823124 -0.315827
0.641656 0.822905 -0.315074
0.701608 0.822074 -0.313393
0.762886 0.820623 -0.310697
0.824891 0.818451 -0.306702
0.886842 0.815220 -0.300626
0.947702 0.810502 -0.291510
1.006937 0.804447 -0.279631
1.063886 0.796938 -0.264776
1.117377 0.787506 -0.246129
1.167256 0.776220 -0.224066
1.213806 0.763290 -0.199274
1.257542 0.748973 -0.172474
1.299170 0.733600 -0.144390
1.339437 0.717528 -0.115611
1.379047 0.701110 -0.086546
-0.239018 0.810067 -0.263869
-0.195055 0.815892 -0.267975
-0.150984 0.821660 -0.272093
-0.106701 0.827318 -0.276235
-0.062115 0.832811 -0.280407
-0.017142 0.838090 -0.284607
0.028288 0.843102 -0.288822
0.074231 0.847797 -0.293028
0.120736 0.852122 -0.297180
0.167853 0.856024 -0.301218
0.215654 0.859436 -0.305054
0.264208 0.862305 -0.308597
0.313571 0.864602 -0.311765
0.363942 0.866219 -0.314408
0.415366 0.867191 -0.316474
0.467945 0.867541 -0.317914
0.521546 0.867399 -0.318827
0.576243 0.866780 -0.319206
0.632479 0.865538 -0.318835
0.690374 0.863605 -0.317564
0.749483 0.861036 -0.315366
0.809409 0.857747 -0.311986
0.869553 0.853444 -0.306754
0.929056 0.847739 -0.298807
0.987337 0.840720 -0.288251
1.043768 0.832312 -0.274928
1.097250 0.822042 -0.257970
1.147503 0.809931 -0.237572
1.194644 0.796150 -0.214255
1.239044 0.780930 -0.188625
1.281298 0.764589 -0.161364
1.322114 0.747492 -0.133109
1.362215 0.730016 -0.104396
-0.238249 0.857444 -0.264371
-0.194136 0.863462 -0.268606
-0.149923 0.869416 -0.272847
-0.105515 0.875244 -0.277101
-0.060829 0.880889 -0.281370
-0.015793 0.886289 -0.285653
0.029650 0.891385 -0.289937
0.075544 0.896115 -0.294199
0.121921 0.900414 -0.298400
0.168813 0.904212 -0.302488
0.216263 0.907426 -0.306384
0.264313 0.909985 -0.310012
0.312993 0.911850 -0.313297
0.362447 0.912893 -0.316107
0.412712 0.913154 -0.318391
0.463878 0.912659 -0.320094
0.515854 0.911568 -0.321303
0.568723 0.909905 -0.321997
0.622890 0.907514 -0.321968
